!!!OTL: Geh mer net iwer mei Aeckerche, Aeckerche, geh mer net iwer mei Wies
!!!ARE: Europa, Mitteleuropa, Deutschland, Untermainfranken, Spessart
!!!SCT: D0177
!!!YEM: Copyright 1995, estate of Helmut Schaffrath.
**kern
*ICvox
*Ivox
*M3/4
*k[b-]
*F:
{4.f
8f
4f
=1
4a
4g
4f
=2
4.cc
8cc
4cc
=3
4.cc
8cc
4cc}
=4
{4.f
8f
4f
=5
4a
4g
4f
=6
2cc
4r}
=7
{4.dd
8dd
4dd
=8
4dd
4cc
4b-
=9
4.a
8cc
4cc
=10
4.a
8cc
4cc}
=11
{4ee
4dd
4cc
=12
4b-
4a
4g
=13
2cc
4r}
=14
{4.dd
8dd
4dd
=15
4dd
4cc
4b-
=16
4.a
8cc
4cc
=17
4.a
8cc
4cc}
=18
{4ee
4dd
4cc
=19
4b-
4a
4g
=20
2f
4r}
==
!!!AGN: Scherz - Lied
!! Inzipit = Transposition zum Lied
!!!ONB: ESAC (Essen Associative Code) Database: DVA
!!!AMT: simple triple
!!!AIN: vox
!!!EED: Helmut Schaffrath
!!!EEV: 1.0
*-
